icons/oshw.svg

<?xml version="1.0" encoding="UTF-8" standalone="no"?>
<svg width="256px" height="269px" viewBox="0 0 256 269" version="1.1" xmlns="http://www.w3.org/2000/svg" xmlns:xlink="http://www.w3.org/1999/xlink" preserveAspectRatio="xMidYMid">
	<g fill="#0099B0">
		<path d="M226.306066,85.5748781 L201.884751,81.0334851 C201.290522,80.9220671 200.639841,80.3634922 200.43929,79.7900614 L192.953494,62.3256794 C192.674206,61.7864168 192.727687,60.9396409 193.072339,60.4375176 L207.301146,39.6989353 C207.641342,39.1997832 207.574491,38.4406559 207.145161,38.0113256 L189.373265,20.2394302 C188.943935,19.8101 188.186294,19.7402781 187.687141,20.0834452 L166.584594,34.564799 C166.085442,34.9079661 165.229753,34.9688747 164.687519,34.7014717 L147.757942,27.7712793 C147.183026,27.5811261 146.622966,26.9378735 146.510062,26.3421592 L141.808227,1.08298185 C141.698295,0.487267551 141.111494,0 140.505381,0 L115.369506,0 C114.764878,0 114.178077,0.487267551 114.068145,1.08298185 L109.367796,26.3421592 C109.254893,26.9378735 108.696318,27.5811261 108.119915,27.7712793 L91.1888539,34.7014717 C90.6451346,34.9688747 89.7894452,34.9079661 89.2917787,34.564799 L68.1907168,20.0834452 C67.6900791,19.7402781 66.9309519,19.8101 66.5031073,20.2394302 L48.7297262,38.0113256 C48.3018815,38.4406559 48.2305741,39.1997832 48.5737412,39.6989353 L62.8040335,60.4375176 C63.1457149,60.9396409 63.1991956,61.7864168 62.9213936,62.3256794 L55.4341118,79.7900614 C55.2350451,80.3634922 54.5858503,80.9220671 53.9886504,81.0334851 L29.5688211,85.5748781 C28.9716213,85.6877815 28.4858393,86.2730968 28.4858393,86.8792101 L28.4873248,112.013599 C28.4873248,112.619713 28.9745924,113.209485 29.5703067,113.317931 L53.3914506,117.750877 C53.9871649,117.859324 54.6244752,118.425327 54.8057149,119.003214 L62.2424873,137.58029 C62.5084047,138.125495 62.4460106,138.978213 62.101358,139.477365 L48.5707701,159.19536 C48.2290885,159.694512 48.2989104,160.455125 48.7267551,160.884455 L66.5016217,178.65635 C66.9294663,179.08271 67.6885936,179.152532 68.1892313,178.812336 L87.5581164,165.517954 C88.0572685,165.176272 88.8936454,165.149531 89.4150812,165.454074 L97.957119,170.014779 C98.4978671,170.291096 99.1292352,170.057861 99.3609843,169.4978 L116.973923,126.940625 C117.207158,126.380564 116.973923,125.666004 116.456945,125.349578 L114.319206,124.040788 C113.924045,123.800126 113.387753,123.385651 112.967337,123.005345 C105.255733,118.067304 100.139424,109.428705 100.139424,99.591248 C100.139424,84.239349 112.585544,71.794714 127.935958,71.794714 C143.286371,71.794714 155.731006,84.239349 155.731006,99.591248 C155.731006,109.428705 150.616182,118.067304 142.903094,123.005345 C142.485649,123.385651 141.947871,123.800126 141.554195,124.040788 L139.416457,125.349578 C138.902449,125.666004 138.667729,126.380564 138.899478,126.940625 L156.510932,169.499286 C156.742681,170.059346 157.372564,170.291096 157.914797,170.016265 L166.456835,165.45556 C166.979756,165.151017 167.814647,165.176272 168.3138,165.519439 L187.68417,178.81382 C188.183322,179.154017 188.943935,179.084195 189.370294,178.657836 L207.145161,160.885941 C207.574491,160.456611 207.644313,159.695997 207.301146,159.196846 L193.769072,139.478851 C193.427391,138.979698 193.363511,138.126981 193.629429,137.581776 L201.066201,119.0047 C201.248927,118.426813 201.88178,117.86081 202.47898,117.752363 L226.300124,113.319417 C226.894352,113.21097 227.383105,112.621199 227.383105,112.015085 L227.386077,86.8806956 C227.387562,86.2730968 226.900294,85.6877815 226.306066,85.5748781"></path>
		<path d="M67.7376174,268.563156 L73.1049884,268.563156 L73.1049884,250.358959 C73.1049884,243.783819 68.5799366,241.573288 62.0033102,241.573288 C58.004151,241.573288 55.0582621,242.623586 53.0066875,245.466971 L57.2153123,248.675806 C58.1616215,247.150124 59.4778382,246.62126 62.2662565,246.62126 C66.1064596,246.62126 67.7376174,247.518545 67.7376174,250.042532 L67.7376174,252.83095 L60.3186718,252.83095 C54.5843647,252.83095 51.6384758,256.463173 51.6384758,260.723793 C51.6384758,265.35432 55.1102571,268.879583 61.0555154,268.879583 C64.686253,268.879583 66.5283619,268.038749 67.6321419,266.195154 L67.7376174,266.195154 L67.7376174,268.563156 L67.7376174,268.563156 Z M67.7376174,259.196626 C67.7376174,263.354741 66.2119352,263.827153 61.7403641,263.827153 C58.1096265,263.827153 56.6879343,262.24799 56.6879343,260.460847 C56.6879343,258.513262 58.1616215,257.249041 61.3199472,257.249041 L67.7376174,257.249041 L67.7376174,259.196626 L67.7376174,259.196626 Z"></path>
		<path d="M78.9997372,268.563156 L84.3656226,268.563156 L84.3656226,252.514524 C84.3656226,248.623811 86.9445752,246.937687 89.5755229,246.937687 C90.9437345,246.937687 91.8380488,247.306108 93.1007847,248.25539 L96.9929828,243.624862 C95.361825,242.362126 93.5746822,241.573288 91.4161463,241.573288 C88.5757331,241.573288 86.154251,242.626558 84.4710981,244.730127 L84.3656226,244.730127 L84.3656226,241.889714 L78.9997372,241.889714 L78.9997372,268.563156 L78.9997372,268.563156 Z"></path>
		<path d="M113.044586,268.563156 L118.410472,268.563156 L118.410472,231.101491 L113.044586,231.101491 L113.044586,244.730127 C111.045007,242.836023 108.887957,241.573288 106.151533,241.573288 C102.889217,241.573288 100.522702,243.044004 98.9970192,245.046554 C97.523332,246.937687 97.1029152,248.672835 97.1029152,255.201923 C97.1029152,261.777064 97.523332,263.512212 98.9970192,265.406315 C100.522702,267.405895 102.889217,268.879583 106.151533,268.879583 C108.887957,268.879583 111.361434,267.613876 113.044586,265.774738 L113.044586,268.563156 L113.044586,268.563156 Z M107.782691,246.937687 C112.78164,246.937687 113.044586,251.360234 113.044586,255.201923 C113.044586,259.095606 112.78164,263.512212 107.782691,263.512212 C102.731747,263.512212 102.468801,259.357068 102.468801,255.201923 C102.468801,251.095803 102.731747,246.937687 107.782691,246.937687 L107.782691,246.937687 L107.782691,246.937687 Z"></path>
		<path d="M145.798473,268.563156 L150.535962,268.563156 L159.057201,241.889714 L153.373404,241.889714 L148.273436,260.566323 L148.164989,260.566323 L142.115741,241.889714 L138.222057,241.889714 L132.172809,260.566323 L132.067333,260.566323 L126.962909,241.889714 L121.282082,241.889714 L129.804807,268.563156 L134.539324,268.563156 L140.116161,249.885062 L140.221637,249.885062 L145.798473,268.563156 L145.798473,268.563156 Z"></path>
		<path d="M175.573789,268.563156 L180.941159,268.563156 L180.941159,250.358959 C180.941159,243.783819 176.414623,241.573288 169.839481,241.573288 C165.841808,241.573288 162.892948,242.623586 160.841374,245.466971 L165.051483,248.675806 C165.997793,247.150124 167.311039,246.62126 170.099457,246.62126 C173.941146,246.62126 175.572303,247.518545 175.572303,250.042532 L175.572303,252.83095 L168.153358,252.83095 C162.420536,252.83095 159.471676,256.463173 159.471676,260.723793 C159.471676,265.35432 162.944943,268.879583 168.890201,268.879583 C172.519453,268.879583 174.363048,268.038749 175.468313,266.195154 L175.572303,266.195154 L175.572303,268.563156 L175.573789,268.563156 L175.573789,268.563156 Z M175.573789,259.196626 C175.573789,263.354741 174.048106,263.827153 169.576535,263.827153 C165.947284,263.827153 164.525591,262.24799 164.525591,260.460847 C164.525591,258.513262 165.999279,257.249041 169.156119,257.249041 L175.573789,257.249041 L175.573789,259.196626 L175.573789,259.196626 Z"></path>
		<path d="M186.837395,268.563156 L192.201794,268.563156 L192.201794,252.514524 C192.201794,248.623811 194.777776,246.937687 197.410209,246.937687 C198.779906,246.937687 199.672735,247.306108 200.93547,248.25539 L204.829154,243.624862 C203.197996,242.362126 201.407883,241.573288 199.252317,241.573288 C196.411905,241.573288 193.991908,242.626558 192.308755,244.730127 L192.201794,244.730127 L192.201794,241.889714 L186.837395,241.889714 L186.837395,268.563156 L186.837395,268.563156 Z"></path>
		<path d="M226.918122,257.252012 L226.918122,252.829465 C226.918122,245.937897 221.816668,241.571802 215.924891,241.571802 C210.76847,241.571802 204.928688,244.938107 204.928688,255.301456 C204.928688,266.245664 211.294363,268.878097 216.767209,268.878097 C220.344467,268.878097 223.762767,267.615361 226.393714,264.563996 L222.500031,261.2482 C220.920868,262.882329 218.710337,263.827153 216.661734,263.827153 C212.977515,263.827153 210.296059,261.616622 210.296059,257.252012 L226.918122,257.252012 L226.918122,257.252012 Z M210.296059,252.83095 C210.400048,248.779796 212.76805,246.62126 215.924891,246.62126 C219.08173,246.62126 221.397737,248.779796 221.553721,252.83095 L210.296059,252.83095 L210.296059,252.83095 Z"></path>
		<path d="M0,213.068135 C0,218.854438 0.840833639,221.064969 2.8924083,223.327494 C4.36609552,224.958653 6.83957257,226.745795 10.9962025,226.745795 C15.1513467,226.745795 17.6248239,224.958653 19.0985111,223.327494 C21.1500857,221.064969 21.9924049,218.852952 21.9924049,213.068135 C21.9924049,207.332343 21.1500857,205.123298 19.0985111,202.860772 C17.6248239,201.229614 15.1513467,199.4395 10.9962025,199.4395 C6.83957257,199.4395 4.36609552,201.229614 2.8924083,202.860772 C0.840833639,205.124783 0,207.332343 0,213.068135 M16.625034,213.120131 C16.625034,216.961819 16.3100928,218.012119 15.310303,219.43381 C14.5199788,220.539076 12.836826,221.381395 10.9962025,221.381395 C9.15409344,221.381395 7.47094059,220.540562 6.68210196,219.43381 C5.68231214,218.012119 5.36588535,216.961819 5.36588535,213.068135 C5.36588535,209.226447 5.68231214,208.173176 6.68210196,206.754456 C7.47094059,205.64919 9.15409344,204.806871 10.9962025,204.806871 C12.836826,204.806871 14.5199788,205.647704 15.310303,206.754456 C16.3100928,208.173176 16.625034,209.226447 16.625034,213.120131"></path>
		<path d="M73.4897514,215.11971 L73.4897514,210.700134 C73.4897514,203.805596 68.3868123,199.4395 62.4950345,199.4395 C57.3371293,199.4395 51.498832,202.808777 51.498832,213.172126 C51.498832,224.113362 57.8645072,226.745795 63.3358681,226.745795 C66.9146106,226.745795 70.3329113,225.483059 72.963859,222.431695 L69.0701753,219.118869 C67.4924981,220.750028 65.2834528,221.697822 63.2318781,221.697822 C59.54766,221.697822 56.8647174,219.487291 56.8647174,215.11971 L73.4897514,215.11971 L73.4897514,215.11971 Z M56.8647174,210.701619 C56.970193,206.647494 59.3381944,204.49193 62.4950345,204.49193 C65.6518746,204.49193 67.9663954,206.647494 68.1238661,210.701619 L56.8647174,210.701619 L56.8647174,210.701619 Z"></path>
		<path d="M78.0697692,226.429369 L83.4356546,226.429369 L83.4356546,210.544149 C83.4356546,206.911926 85.6981805,204.808357 88.749545,204.808357 C91.7489144,204.808357 94.0114403,206.911926 94.0114403,210.544149 L94.0114403,226.429369 L99.3773256,226.429369 L99.3773256,208.700555 C99.3773256,202.648335 94.6428083,199.4395 90.4861784,199.4395 C87.6457651,199.4395 85.2242831,200.49277 83.5426158,202.59634 L83.4356546,202.59634 L83.4356546,199.755927 L78.0697692,199.755927 L78.0697692,226.429369 L78.0697692,226.429369 Z"></path>
		<path d="M113.886906,221.959282 C117.306691,225.168118 121.305851,226.747281 125.619952,226.747281 C131.828156,226.747281 136.668149,223.749397 136.668149,218.539497 C136.668149,214.280362 134.46059,210.911085 128.934262,210.542663 L124.514686,210.229208 C121.831743,210.016771 120.99091,208.85951 120.99091,207.70225 C120.99091,205.863113 122.14817,204.493415 125.566471,204.493415 C128.46185,204.493415 130.620386,205.494691 132.723956,206.965407 L136.036781,203.074695 C133.405834,200.864164 130.250479,199.442471 125.564985,199.442471 C119.936154,199.442471 115.622054,202.230889 115.622054,207.650255 C115.622054,212.225816 118.884369,214.85825 123.302459,215.226671 L128.038462,215.647088 C129.882057,215.803073 131.300778,216.383932 131.300778,218.278036 C131.300778,220.540562 129.088762,221.696336 126.038882,221.696336 C122.461626,221.696336 119.936154,220.542047 117.621633,218.278036 L113.886906,221.959282 L113.886906,221.959282 Z"></path>
		<path d="M139.719513,213.068135 C139.719513,218.854438 140.563318,221.064969 142.614892,223.327494 C144.08858,224.958653 146.560571,226.745795 150.715716,226.745795 C154.873831,226.745795 157.345823,224.958653 158.81951,223.327494 C160.871085,221.064969 161.711918,218.852952 161.711918,213.068135 C161.711918,207.332343 160.871085,205.123298 158.81951,202.860772 C157.345823,201.229614 154.873831,199.4395 150.715716,199.4395 C146.560571,199.4395 144.08858,201.229614 142.614892,202.860772 C140.563318,205.124783 139.719513,207.332343 139.719513,213.068135 M156.344548,213.120131 C156.344548,216.961819 156.031091,218.012119 155.029816,219.43381 C154.240978,220.539076 152.557825,221.381395 150.715716,221.381395 C148.876578,221.381395 147.190454,220.540562 146.404587,219.43381 C145.403311,218.012119 145.086885,216.961819 145.086885,213.068135 C145.086885,209.226447 145.403311,208.173176 146.404587,206.754456 C147.190454,205.64919 148.876578,204.806871 150.715716,204.806871 C152.557825,204.806871 154.240978,205.647704 155.029816,206.754456 C156.031091,208.173176 156.344548,209.226447 156.344548,213.120131"></path>
		<path d="M166.293422,217.487711 C166.293422,223.53696 171.029425,226.745795 175.23805,226.745795 C178.023496,226.745795 180.446464,225.692524 182.129617,223.588955 L182.233607,223.588955 L182.233607,226.432339 L187.598007,226.432339 L187.598007,199.755927 L182.233607,199.755927 L182.233607,215.644117 C182.233607,219.273369 179.971081,221.37991 176.970226,221.37991 C173.920347,221.37991 171.657821,219.273369 171.657821,215.644117 L171.657821,199.755927 L166.293422,199.755927 L166.293422,217.487711 L166.293422,217.487711 Z"></path>
		<path d="M193.483842,226.429369 L198.851214,226.429369 L198.851214,210.383707 C198.851214,206.490024 201.427195,204.806871 204.059628,204.806871 C205.429325,204.806871 206.322154,205.175293 207.58489,206.121602 L211.478574,201.491075 C209.844445,200.228339 208.060273,199.4395 205.901738,199.4395 C203.061324,199.4395 200.638357,200.49277 198.955204,202.59634 L198.851214,202.59634 L198.851214,199.755927 L193.483842,199.755927 L193.483842,226.429369 L193.483842,226.429369 Z"></path>
		<path d="M228.568592,218.592977 C227.25386,220.224135 225.359757,221.381395 223.152197,221.381395 C218.786101,221.381395 216.205663,218.906432 216.205663,213.11716 C216.205663,207.278862 218.784615,204.806871 223.152197,204.806871 C225.359757,204.806871 227.255346,205.964131 228.568592,207.595289 L232.514271,204.070028 C230.201236,201.385598 226.989428,199.4395 222.93976,199.4395 C216.785037,199.4395 210.839778,203.333183 210.839778,213.11716 C210.839778,222.855083 216.785037,226.745795 222.93976,226.745795 C226.990914,226.745795 230.20272,224.79821 232.514271,222.118239 L228.568592,218.592977 L228.568592,218.592977 Z"></path>
		<path d="M255.871916,215.11971 L255.871916,210.700134 C255.871916,203.805596 250.76452,199.4395 244.875714,199.4395 C239.716323,199.4395 233.879511,202.808777 233.879511,213.172126 C233.879511,224.113362 240.245186,226.745795 245.718033,226.745795 C249.29529,226.745795 252.716561,225.483059 255.344538,222.431695 L251.450854,219.118869 C249.871691,220.750028 247.664132,221.697822 245.612557,221.697822 C241.928339,221.697822 239.246882,219.487291 239.246882,215.11971 L255.871916,215.11971 L255.871916,215.11971 Z M239.246882,210.701619 C239.350872,206.647494 241.718873,204.49193 244.875714,204.49193 C248.032553,204.49193 250.345588,206.647494 250.504545,210.701619 L239.246882,210.701619 L239.246882,210.701619 Z"></path>
		<path d="M37.2002035,221.381395 C42.2511475,221.381395 42.5140938,217.223279 42.5140938,213.120131 C42.5140938,208.962015 42.2511475,204.806871 37.2002035,204.806871 C32.20274,204.806871 31.9383081,209.226447 31.9383081,213.120131 C31.9383081,216.961819 32.2012543,221.381395 37.2002035,221.381395 L37.2002035,221.381395 L37.2002035,221.381395 Z M26.5516248,268.563156 L26.5516248,199.757412 L31.9383081,199.757412 L31.9383081,202.545831 C33.6229465,200.703722 36.0949381,199.440985 38.8313613,199.440985 C42.0921914,199.440985 44.4616784,200.914673 45.9873606,202.914252 C47.4595623,204.808357 47.8799792,206.543505 47.8799792,213.121616 C47.8799792,219.644762 47.4595623,221.382881 45.9873606,223.274014 C44.4616784,225.273593 42.0921914,226.747281 38.8313613,226.747281 C36.0949381,226.747281 33.9378878,225.484545 31.9383081,223.59044 L31.9189957,244.730127 C33.7076242,242.626558 36.1276206,241.573288 38.9680339,241.573288 C43.1246638,241.573288 47.8591811,244.782122 47.8591811,250.831371 L47.8591811,268.563156 L42.4932958,268.563156 L42.4932958,252.674966 C42.4932958,249.042742 40.2307699,246.939172 37.2314005,246.939172 C34.180036,246.939172 31.9189957,249.042742 31.9189957,252.674966 L31.9189957,268.563156 L26.5516248,268.563156 L26.5516248,268.563156 Z"></path>
	</g>
</svg>

<svg xmlns="http://www.w3.org/2000/svg" viewBox="0 0 255.872 268.88">
  <g fill="#0099b0">
    <path d="m226.306 85.575-24.421-4.542c-.594-.11-1.245-.67-1.446-1.243l-7.486-17.464c-.279-.54-.225-1.386.12-1.888l14.228-20.74c.34-.498.273-1.257-.156-1.687L189.373 20.24c-.43-.429-1.187-.499-1.686-.156l-21.102 14.482c-.5.343-1.355.404-1.897.136l-16.93-6.93c-.575-.19-1.135-.833-1.248-1.429l-4.702-25.259C141.698.487 141.111 0 140.505 0H115.37c-.605 0-1.192.487-1.302 1.083l-4.7 25.26c-.113.595-.672 1.238-1.248 1.428l-16.931 6.93c-.544.268-1.4.207-1.897-.136L68.19 20.083c-.5-.343-1.26-.273-1.688.156L48.73 38.011c-.428.43-.5 1.189-.156 1.688l14.23 20.739c.342.502.395 1.348.117 1.888L55.434 79.79c-.199.573-.848 1.132-1.445 1.243l-24.42 4.542c-.597.113-1.083.698-1.083 1.304l.001 25.135c0 .606.488 1.195 1.083 1.304l23.821 4.433c.596.108 1.233.674 1.415 1.252l7.437 18.577c.265.545.203 1.398-.142 1.897l-13.53 19.718c-.342.5-.272 1.26.156 1.69l17.775 17.771c.427.427 1.187.497 1.687.156l19.37-13.294c.498-.342 1.335-.368 1.856-.064l8.542 4.56c.54.277 1.172.044 1.404-.516l17.613-42.557c.233-.56 0-1.275-.517-1.591l-2.138-1.31c-.395-.24-.931-.654-1.352-1.035-7.711-4.938-12.828-13.576-12.828-23.414 0-15.352 12.447-27.796 27.797-27.796 15.35 0 27.795 12.444 27.795 27.796 0 9.838-5.115 18.476-12.828 23.414-.417.38-.955.795-1.349 1.036l-2.138 1.309c-.514.316-.748 1.03-.517 1.59l17.612 42.56c.232.56.862.791 1.404.516l8.542-4.56c.523-.305 1.358-.28 1.857.063l19.37 13.295c.5.34 1.26.27 1.686-.156l17.775-17.772c.43-.43.5-1.19.156-1.69L193.77 139.48c-.342-.5-.405-1.352-.14-1.897l7.437-18.577c.183-.578.816-1.144 1.413-1.253l23.821-4.433c.594-.108 1.083-.698 1.083-1.304l.003-25.134c.001-.608-.486-1.193-1.08-1.306M67.738 268.563h5.367V250.36c0-6.575-4.525-8.786-11.102-8.786-3.999 0-6.945 1.05-8.996 3.894l4.208 3.209c.947-1.526 2.263-2.055 5.051-2.055 3.84 0 5.472.898 5.472 3.422v2.788h-7.42c-5.734 0-8.68 3.632-8.68 7.893 0 4.63 3.472 8.156 9.418 8.156 3.63 0 5.472-.841 6.576-2.685h.106zm0-9.366c0 4.158-1.526 4.63-5.998 4.63-3.63 0-5.052-1.579-5.052-3.366 0-1.948 1.474-3.212 4.632-3.212h6.418zM79 268.563h5.366v-16.048c0-3.891 2.579-5.577 5.21-5.577 1.368 0 2.262.368 3.525 1.317l3.892-4.63c-1.631-1.263-3.418-2.052-5.577-2.052-2.84 0-5.262 1.054-6.945 3.157h-.105v-2.84H79zM113.045 268.563h5.365v-37.462h-5.365v13.63c-2-1.895-4.157-3.158-6.893-3.158-3.263 0-5.63 1.471-7.155 3.474-1.474 1.89-1.894 3.626-1.894 10.155 0 6.575.42 8.31 1.894 10.204 1.526 2 3.892 3.474 7.155 3.474 2.736 0 5.21-1.266 6.893-3.105zm-5.262-21.625c4.999 0 5.262 4.422 5.262 8.264 0 3.894-.263 8.31-5.262 8.31-5.051 0-5.314-4.155-5.314-8.31 0-4.106.263-8.264 5.314-8.264zM145.798 268.563h4.738l8.521-26.673h-5.684l-5.1 18.676h-.108l-6.05-18.676h-3.893l-6.05 18.676h-.105l-5.104-18.676h-5.68l8.522 26.673h4.734l5.577-18.678h.106zM175.574 268.563h5.367V250.36c0-6.575-4.526-8.786-11.102-8.786-3.997 0-6.946 1.05-8.998 3.894l4.21 3.209c.947-1.526 2.26-2.055 5.048-2.055 3.842 0 5.473.898 5.473 3.422v2.788h-7.419c-5.732 0-8.681 3.632-8.681 7.893 0 4.63 3.473 8.156 9.418 8.156 3.63 0 5.473-.841 6.578-2.685h.104v2.368h.001zm0-9.366c0 4.158-1.526 4.63-5.997 4.63-3.63 0-5.051-1.579-5.051-3.366 0-1.948 1.473-3.212 4.63-3.212h6.418zM186.837 268.563h5.365v-16.048c0-3.891 2.576-5.577 5.208-5.577 1.37 0 2.263.368 3.525 1.317l3.894-4.63c-1.631-1.263-3.421-2.052-5.577-2.052-2.84 0-5.26 1.054-6.943 3.157h-.107v-2.84h-5.365zM226.918 257.252v-4.423c0-6.891-5.101-11.257-10.993-11.257-5.157 0-10.996 3.366-10.996 13.73 0 10.944 6.365 13.576 11.838 13.576 3.577 0 6.996-1.263 9.627-4.314l-3.894-3.316c-1.58 1.634-3.79 2.58-5.838 2.58-3.684 0-6.366-2.211-6.366-6.576zm-16.622-4.421c.104-4.051 2.472-6.21 5.629-6.21 3.157 0 5.473 2.159 5.629 6.21zM0 213.068c0 5.786.84 7.997 2.892 10.26 1.474 1.63 3.948 3.418 8.104 3.418 4.155 0 6.629-1.787 8.103-3.419 2.051-2.262 2.893-4.474 2.893-10.259 0-5.736-.842-7.945-2.893-10.207-1.474-1.631-3.948-3.421-8.103-3.421-4.156 0-6.63 1.79-8.104 3.42C.841 205.126 0 207.333 0 213.069m16.625.052c0 3.842-.315 4.892-1.315 6.314-.79 1.105-2.473 1.947-4.314 1.947-1.842 0-3.525-.84-4.314-1.947-1-1.422-1.316-2.472-1.316-6.366 0-3.842.316-4.895 1.316-6.314.789-1.105 2.472-1.947 4.314-1.947 1.84 0 3.524.84 4.314 1.947 1 1.42 1.315 2.472 1.315 6.366M73.49 215.12v-4.42c0-6.894-5.103-11.26-10.995-11.26-5.158 0-10.996 3.369-10.996 13.732 0 10.941 6.366 13.574 11.837 13.574 3.579 0 6.997-1.263 9.628-4.314l-3.894-3.313c-1.578 1.631-3.787 2.579-5.838 2.579-3.684 0-6.367-2.21-6.367-6.578zm-16.625-4.418c.105-4.055 2.473-6.21 5.63-6.21s5.471 2.155 5.629 6.21zM78.07 226.43h5.366v-15.886c0-3.632 2.262-5.736 5.314-5.736 2.999 0 5.261 2.104 5.261 5.736v15.885h5.366v-17.728c0-6.053-4.734-9.261-8.89-9.261-2.841 0-5.263 1.053-6.944 3.156h-.107v-2.84H78.07zM113.887 221.96c3.42 3.208 7.419 4.787 11.733 4.787 6.208 0 11.048-2.998 11.048-8.207 0-4.26-2.207-7.629-7.734-7.997l-4.42-.314c-2.682-.212-3.523-1.37-3.523-2.527 0-1.839 1.157-3.209 4.575-3.209 2.896 0 5.054 1.002 7.158 2.472l3.313-3.89c-2.631-2.21-5.787-3.633-10.472-3.633-5.629 0-9.943 2.789-9.943 8.208 0 4.576 3.262 7.208 7.68 7.577l4.736.42c1.844.156 3.263.737 3.263 2.631 0 2.263-2.212 3.418-5.262 3.418-3.577 0-6.103-1.154-8.417-3.418zM139.72 213.068c0 5.786.843 7.997 2.895 10.26 1.474 1.63 3.946 3.418 8.1 3.418 4.159 0 6.63-1.787 8.105-3.419 2.051-2.262 2.892-4.474 2.892-10.259 0-5.736-.84-7.945-2.892-10.207-1.474-1.631-3.946-3.421-8.104-3.421-4.155 0-6.627 1.79-8.101 3.42-2.052 2.265-2.895 4.472-2.895 10.208m16.625.052c0 3.842-.314 4.892-1.315 6.314-.789 1.105-2.472 1.947-4.314 1.947-1.84 0-3.526-.84-4.311-1.947-1.002-1.422-1.318-2.472-1.318-6.366 0-3.842.316-4.895 1.318-6.314.785-1.105 2.472-1.947 4.31-1.947 1.843 0 3.526.84 4.315 1.947 1.001 1.42 1.315 2.472 1.315 6.366M166.293 217.488c0 6.049 4.736 9.258 8.945 9.258 2.785 0 5.208-1.053 6.892-3.157h.104v2.843h5.364v-26.676h-5.364v15.888c0 3.63-2.263 5.736-5.264 5.736-3.05 0-5.312-2.107-5.312-5.736v-15.888h-5.365zM193.484 226.43h5.367v-16.046c0-3.894 2.576-5.577 5.209-5.577 1.37 0 2.262.368 3.525 1.315l3.894-4.63c-1.635-1.264-3.419-2.052-5.577-2.052-2.84 0-5.264 1.053-6.947 3.156h-.104v-2.84h-5.367zM228.569 218.593c-1.315 1.631-3.21 2.788-5.417 2.788-4.366 0-6.946-2.475-6.946-8.264 0-5.838 2.579-8.31 6.946-8.31 2.208 0 4.103 1.157 5.417 2.788l3.945-3.525c-2.313-2.684-5.525-4.63-9.574-4.63-6.155 0-12.1 3.893-12.1 13.677 0 9.738 5.945 13.629 12.1 13.629 4.05 0 7.263-1.948 9.574-4.628zM255.872 215.12v-4.42c0-6.894-5.107-11.26-10.996-11.26-5.16 0-10.996 3.369-10.996 13.732 0 10.941 6.365 13.574 11.838 13.574 3.577 0 6.999-1.263 9.627-4.314l-3.894-3.313c-1.58 1.631-3.787 2.579-5.838 2.579-3.685 0-6.366-2.21-6.366-6.578zm-16.625-4.418c.104-4.055 2.472-6.21 5.629-6.21 3.157 0 5.47 2.155 5.629 6.21zM37.2 221.381c5.051 0 5.314-4.158 5.314-8.26 0-4.159-.263-8.314-5.314-8.314-4.997 0-5.262 4.42-5.262 8.313 0 3.842.263 8.261 5.262 8.261zm-10.648 47.182v-68.806h5.386v2.789c1.685-1.842 4.157-3.105 6.893-3.105 3.261 0 5.63 1.474 7.156 3.473 1.473 1.894 1.893 3.63 1.893 10.208 0 6.523-.42 8.26-1.893 10.152-1.525 2-3.895 3.473-7.156 3.473-2.736 0-4.893-1.262-6.893-3.157l-.019 21.14c1.789-2.103 4.209-3.157 7.049-3.157 4.157 0 8.891 3.21 8.891 9.258v17.732h-5.366v-15.888c0-3.632-2.262-5.736-5.262-5.736-3.051 0-5.312 2.104-5.312 5.736v15.888h-5.367z"/>
  </g>
</svg>
